X:1
T:Title
L:1/8
Q:1/4=100
M:4/4
K:C
V:1 treble nm="Choir Pad, Staff"
V:1
 z DEF GADE | FGFE E2 GA | cccB AGAB | B B2 A Acdc | cBAG AcBA | GFEF G A2 D | EFAA cBAG | %7
 EFGF E .E3 | z EFE D2 E2 |] %9

